X:195
T:I Will If I Can
R:jig
D:Quilty: A Drop of Pure
Z:id:hn-jig-195
M:6/8
K:G
D | GBd gdB | ded d2c | ~B3 BAG | FAA AFD |
GBd gdB | def g2f | edc BcA | BGG G2 :|
|: d | g2d edB | ded def | g2d edB | ABA ABd |
g2d edB | def g2f | edc BcA | BGF G2 :|
P:version 2 and variations
|: D | GBd gdB | ded d2B | GBd gdB | ~A3 A2D |
GBd gdB | def ~g3 | edB cBA | ~G3 G2 :|
|: d | g2d edB | ded def | ~g3 edB | ~A3 AB/c/d |
~g3 edB | def gfe | dcB cBA | ~G3 G2 :|

